src/svg/uf073-calendar.svg

<!-- Generated by IcoMoon.io -->
<svg version="1.1" xmlns="http://www.w3.org/2000/svg" width="30" height="32" viewBox="0 0 30 32">
<path d="M2.286 29.714h5.143v-5.143h-5.143v5.143zM8.571 29.714h5.714v-5.143h-5.714v5.143zM2.286 23.429h5.143v-5.714h-5.143v5.714zM8.571 23.429h5.714v-5.714h-5.714v5.714zM2.286 16.571h5.143v-5.143h-5.143v5.143zM15.429 29.714h5.714v-5.143h-5.714v5.143zM8.571 16.571h5.714v-5.143h-5.714v5.143zM22.286 29.714h5.143v-5.143h-5.143v5.143zM15.429 23.429h5.714v-5.714h-5.714v5.714zM9.143 8v-5.143c0-0.304-0.268-0.571-0.571-0.571h-1.143c-0.304 0-0.571 0.268-0.571 0.571v5.143c0 0.304 0.268 0.571 0.571 0.571h1.143c0.304 0 0.571-0.268 0.571-0.571zM22.286 23.429h5.143v-5.714h-5.143v5.714zM15.429 16.571h5.714v-5.143h-5.714v5.143zM22.286 16.571h5.143v-5.143h-5.143v5.143zM22.857 8v-5.143c0-0.304-0.268-0.571-0.571-0.571h-1.143c-0.304 0-0.571 0.268-0.571 0.571v5.143c0 0.304 0.268 0.571 0.571 0.571h1.143c0.304 0 0.571-0.268 0.571-0.571zM29.714 6.857v22.857c0 1.25-1.036 2.286-2.286 2.286h-25.143c-1.25 0-2.286-1.036-2.286-2.286v-22.857c0-1.25 1.036-2.286 2.286-2.286h2.286v-1.714c0-1.571 1.286-2.857 2.857-2.857h1.143c1.571 0 2.857 1.286 2.857 2.857v1.714h6.857v-1.714c0-1.571 1.286-2.857 2.857-2.857h1.143c1.571 0 2.857 1.286 2.857 2.857v1.714h2.286c1.25 0 2.286 1.036 2.286 2.286z"></path>
</svg>

<svg xmlns="http://www.w3.org/2000/svg" width="30" height="32"><path d="M2.286 29.714h5.143v-5.143H2.286v5.143zm6.285 0h5.714v-5.143H8.571v5.143zm-6.285-6.285h5.143v-5.714H2.286v5.714zm6.285 0h5.714v-5.714H8.571v5.714zm-6.285-6.858h5.143v-5.143H2.286v5.143zm13.143 13.143h5.714v-5.143h-5.714v5.143zM8.571 16.571h5.714v-5.143H8.571v5.143zm13.715 13.143h5.143v-5.143h-5.143v5.143zm-6.857-6.285h5.714v-5.714h-5.714v5.714zM9.143 8V2.857a.587.587 0 0 0-.571-.571H7.429a.587.587 0 0 0-.571.571V8c0 .304.268.571.571.571h1.143A.587.587 0 0 0 9.143 8zm13.143 15.429h5.143v-5.714h-5.143v5.714zm-6.857-6.858h5.714v-5.143h-5.714v5.143zm6.857 0h5.143v-5.143h-5.143v5.143zM22.857 8V2.857a.587.587 0 0 0-.571-.571h-1.143a.587.587 0 0 0-.571.571V8c0 .304.268.571.571.571h1.143A.587.587 0 0 0 22.857 8zm6.857-1.143v22.857A2.302 2.302 0 0 1 27.428 32H2.285a2.302 2.302 0 0 1-2.286-2.286V6.857a2.302 2.302 0 0 1 2.286-2.286h2.286V2.857A2.866 2.866 0 0 1 7.428 0h1.143a2.866 2.866 0 0 1 2.857 2.857v1.714h6.857V2.857A2.866 2.866 0 0 1 21.142 0h1.143a2.866 2.866 0 0 1 2.857 2.857v1.714h2.286a2.302 2.302 0 0 1 2.286 2.286z"/></svg>
